X:1
T:Title
%%score { 1 | 2 }
L:1/8
Q:1/4=100
M:4/4
K:G
V:1 treble nm="Grand Piano"
V:2 treble 
V:1
 B3 B cB[DA][DG] | E6 z2 | D3 G AB[^CGB][CGA] | [DFA]6 z2 | B3 d cB[DA][DG] | E6 z2 | %6
w: W.~H.~Doane * * * * *||||||
 D3 G A[GB][GB][FA] | [DG]6 z2 | [FA]3 [GB] [Ac][^GB][Ac][Fe] | d6 z2 | d3 e dBGB | [FA]6 z2 | %12
w: ||||||
 B3 d cB[DA][DG] | E6 z2 | D3 G A[GB][GB]A | G6 z2 |] %16
w: ||||
V:2
 [G,DG]3 [G,DG] [G,EG][G,DG][K:bass][B,,G,][B,,G,] | [C,G,C]6 z2 | %2
 [G,B,]3 [G,B,D] [G,CD][G,DG][K:bass]^C,A,, | D,6 z2 | %4
 [G,DG]3 [G,=FG] [G,EG][G,DG][K:bass][B,,G,][B,,G,] | [C,G,C]6 z2 | %6
 [D,G,B,]3 [D,B,D] [D,CD][D,D][E,^C][E,=C] | [G,B,]6 z2 | [D,D]3 [D,D] [D,D][D,D][D,D][D,C] | %9
 [G,B,G]6 z2 | [G,B,G]3 [G,CG] [G,B,G][G,DG][B,D][G,DG] | [D,D]6 z2 | %12
 [G,DG]3 [G,=FG] [G,EG][G,DG][K:bass][B,,G,][B,,G,] | [C,G,C]6 z2 | %14
 [D,G,B,]3 [D,B,D] [D,CD][D,D][E,^C][F,=CD] | [G,B,D]6 z2 |] %16

